src/lib/packages/icons/src/assets/line/egg-fried.svg

<svg width="24" height="24" viewBox="0 0 24 24" fill="none" xmlns="http://www.w3.org/2000/svg">
<path d="M21.5901 6.89994C21.0501 4.71994 19.29 2.95994 17.12 2.39994C15.63 2.01994 14.0201 2.33995 12.7001 3.25995C11.3201 4.22995 9.64004 4.75995 7.55004 4.87995C6.31004 4.94995 5.15003 5.41995 4.29003 6.19995C2.57003 7.73995 1.86003 10.18 2.48003 12.42C2.86003 13.79 3.86003 14.9999 5.23003 15.7399C6.71003 16.5399 7.77005 17.4799 8.31005 18.4699C9.42005 20.5099 11.3601 21.7399 13.3801 21.7399C13.6001 21.7399 13.8201 21.73 14.0301 21.7C15.2601 21.54 16.4001 21.02 17.3201 20.2C18.3801 19.25 19.0001 17.84 19.0601 16.23C19.1201 14.56 19.7201 12.8899 20.8201 11.2499C21.6901 9.95994 21.97 8.37996 21.6 6.88996L21.5901 6.89994ZM19.5601 10.42C18.3001 12.29 17.62 14.2299 17.54 16.1799C17.49 17.3799 17.05 18.4099 16.3 19.0799C15.6 19.6999 14.7401 20.0899 13.8101 20.2199C12.17 20.4399 10.53 19.47 9.60003 17.76C8.92003 16.5 7.68004 15.3799 5.92004 14.4299C4.91004 13.8799 4.18003 13.0099 3.91003 12.0299C3.45003 10.3399 3.98008 8.48993 5.28008 7.32993C5.90008 6.77993 6.73006 6.43996 7.63006 6.38996C10.0001 6.24996 11.94 5.62994 13.55 4.49994C14.5 3.83994 15.69 3.59994 16.74 3.86994C18.39 4.28994 19.7201 5.61993 20.1301 7.26993C20.3901 8.32993 20.1801 9.50993 19.5601 10.4299V10.42ZM11.49 7.24994C9.15004 7.24994 7.24004 9.15994 7.24004 11.4999C7.24004 13.8399 9.15004 15.7499 11.49 15.7499C13.83 15.7499 15.74 13.8399 15.74 11.4999C15.74 9.15994 13.83 7.24994 11.49 7.24994ZM11.49 14.2499C9.97004 14.2499 8.74004 13.0199 8.74004 11.4999C8.74004 9.97994 9.97004 8.74994 11.49 8.74994C13.01 8.74994 14.24 9.97994 14.24 11.4999C14.24 13.0199 13.01 14.2499 11.49 14.2499Z" fill="currentColor"/>
</svg>

<svg xmlns="http://www.w3.org/2000/svg" width="24" height="24" fill="none"><path fill="currentColor" d="M21.59 6.9c-.54-2.18-2.3-3.94-4.47-4.5-1.49-.38-3.1-.06-4.42.86-1.38.97-3.06 1.5-5.15 1.62-1.24.07-2.4.54-3.26 1.32-1.72 1.54-2.43 3.98-1.81 6.22.38 1.37 1.38 2.58 2.75 3.32 1.48.8 2.54 1.74 3.08 2.73 1.11 2.04 3.05 3.27 5.07 3.27.22 0 .44-.01.65-.04 1.23-.16 2.37-.68 3.29-1.5 1.06-.95 1.68-2.36 1.74-3.97.06-1.67.66-3.34 1.76-4.98.87-1.29 1.15-2.87.78-4.36l-.01.01Zm-2.03 3.52c-1.26 1.87-1.94 3.81-2.02 5.76-.05 1.2-.49 2.23-1.24 2.9a4.72 4.72 0 0 1-2.49 1.14c-1.64.22-3.28-.75-4.21-2.46-.68-1.26-1.92-2.38-3.68-3.33-1.01-.55-1.74-1.42-2.01-2.4-.46-1.69.07-3.54 1.37-4.7.62-.55 1.45-.89 2.35-.94 2.37-.14 4.31-.76 5.92-1.89.95-.66 2.14-.9 3.19-.63 1.65.42 2.98 1.75 3.39 3.4.26 1.06.05 2.24-.57 3.16v-.01Zm-8.07-3.17a4.26 4.26 0 0 0-4.25 4.25 4.26 4.26 0 0 0 4.25 4.25 4.26 4.26 0 0 0 4.25-4.25 4.26 4.26 0 0 0-4.25-4.25Zm0 7c-1.52 0-2.75-1.23-2.75-2.75s1.23-2.75 2.75-2.75 2.75 1.23 2.75 2.75-1.23 2.75-2.75 2.75Z"/></svg>
